icons/kw.svg

<?xml version="1.0" ?>
<svg xmlns="http://www.w3.org/2000/svg" xmlns:ev="http://www.w3.org/2001/xml-events" xmlns:xlink="http://www.w3.org/1999/xlink" baseProfile="full" height="577px" version="1.1" viewBox="-1026.8821211233699 -779.4991486441244 12293.822477525564 11807.742853882883" width="600px">
	<defs/>
	<path d="M 4445.0,10020.0 C 4429.0,10009.0 4387.0,9991.0 4353.0,9980.0 C 4246.0,9947.0 4127.0,9875.0 4030.0,9785.0 C 3989.0,9747.0 3964.0,9736.0 3766.0,9671.0 C 3442.0,9563.0 3396.0,9542.0 3323.0,9467.0 C 3276.0,9419.0 3255.0,9387.0 3230.0,9325.0 C 3212.0,9281.0 3164.0,9189.0 3124.0,9120.0 C 3063.0,9015.0 3048.0,8981.0 3031.0,8905.0 C 3021.0,8855.0 2994.0,8749.0 2972.0,8669.0 C 2939.0,8549.0 2922.0,8506.0 2870.0,8415.0 C 2836.0,8354.0 2789.0,8258.0 2766.0,8200.0 C 2738.0,8129.0 2707.0,8073.0 2673.0,8030.0 C 2633.0,7979.0 2620.0,7952.0 2610.0,7905.0 C 2603.0,7866.0 2577.0,7806.0 2538.0,7736.0 L 2477.0,7628.0 L 2448.0,7446.0 C 2423.0,7293.0 2414.0,7258.0 2390.0,7220.0 C 2375.0,7195.0 2348.0,7146.0 2331.0,7110.0 C 2314.0,7074.0 2271.0,7005.0 2235.0,6955.0 C 2199.0,6906.0 2165.0,6849.0 2159.0,6830.0 C 2153.0,6811.0 2133.0,6768.0 2115.0,6735.0 C 2097.0,6702.0 2070.0,6644.0 2054.0,6605.0 C 2038.0,6567.0 2005.0,6510.0 1979.0,6479.0 C 1940.0,6432.0 1932.0,6414.0 1926.0,6366.0 C 1922.0,6327.0 1897.0,6259.0 1849.0,6152.0 C 1743.0,5919.0 1733.0,5902.0 1657.0,5820.0 C 1619.0,5779.0 1536.0,5677.0 1474.0,5594.0 C 1412.0,5510.0 1341.0,5426.0 1317.0,5406.0 C 1281.0,5377.0 1269.0,5357.0 1246.0,5292.0 C 1213.0,5197.0 1161.0,5120.0 983.0,4904.0 C 909.0,4813.0 815.0,4684.0 768.0,4608.0 C 689.0,4479.0 677.0,4465.0 512.0,4309.0 C 417.0,4219.0 313.0,4125.0 281.0,4100.0 C 135.0,3985.0 102.0,3950.0 49.0,3853.0 C 21.0,3801.0 0.0,3757.0 2.0,3755.0 C 10.0,3748.0 2335.0,3436.0 3585.0,3274.0 C 4339.0,3176.0 4959.0,3093.0 4964.0,3089.0 C 4969.0,3085.0 4975.0,3048.0 4978.0,3008.0 C 4980.0,2968.0 4987.0,2927.0 4992.0,2917.0 C 4997.0,2906.0 5053.0,2829.0 5116.0,2745.0 L 5230.0,2591.0 L 5230.0,2526.0 C 5230.0,2439.0 5264.0,2363.0 5334.0,2290.0 C 5387.0,2235.0 5387.0,2234.0 5487.0,1945.0 L 5588.0,1655.0 L 5596.0,1430.0 L 5605.0,1205.0 L 5656.0,1120.0 C 5699.0,1049.0 5709.0,1022.0 5720.0,955.0 C 5729.0,891.0 5743.0,854.0 5786.0,773.0 C 5839.0,674.0 5844.0,668.0 5953.0,582.0 C 6015.0,533.0 6084.0,483.0 6106.0,472.0 C 6158.0,445.0 6196.0,382.0 6216.0,285.0 C 6224.0,247.0 6234.0,212.0 6238.0,209.0 C 6243.0,204.0 10222.0,274.0 10238.0,279.0 C 10240.0,280.0 10226.0,309.0 10206.0,344.0 C 10183.0,385.0 10170.0,421.0 10170.0,445.0 C 10170.0,469.0 10160.0,496.0 10140.0,525.0 C 10082.0,609.0 10070.0,651.0 10070.0,771.0 C 10070.0,876.0 10069.0,880.0 10045.0,896.0 C 10021.0,912.0 10018.0,911.0 9965.0,871.0 C 9934.0,848.0 9902.0,830.0 9893.0,832.0 C 9882.0,834.0 9872.0,854.0 9864.0,890.0 C 9845.0,969.0 9846.0,973.0 9875.0,966.0 C 9889.0,963.0 9911.0,957.0 9924.0,954.0 C 9942.0,949.0 9952.0,955.0 9969.0,979.0 C 9997.0,1018.0 9989.0,1054.0 9949.0,1070.0 C 9926.0,1080.0 9920.0,1089.0 9920.0,1111.0 C 9920.0,1154.0 9955.0,1150.0 9981.0,1105.0 C 10004.0,1066.0 10007.0,1065.0 10034.0,1085.0 C 10051.0,1098.0 10052.0,1102.0 10037.0,1137.0 C 10026.0,1165.0 10024.0,1188.0 10031.0,1225.0 C 10035.0,1253.0 10039.0,1298.0 10040.0,1325.0 C 10040.0,1353.0 10049.0,1395.0 10060.0,1418.0 C 10083.0,1469.0 10078.0,1508.0 10046.0,1514.0 C 10035.0,1517.0 10003.0,1521.0 9977.0,1524.0 C 9949.0,1527.0 9916.0,1540.0 9897.0,1554.0 C 9879.0,1567.0 9814.0,1603.0 9752.0,1634.0 L 9639.0,1690.0 L 9589.0,1798.0 C 9561.0,1857.0 9522.0,1943.0 9503.0,1990.0 L 9468.0,2075.0 L 9480.0,2210.0 C 9487.0,2284.0 9491.0,2369.0 9489.0,2399.0 L 9485.0,2453.0 L 9430.0,2472.0 C 9400.0,2482.0 9355.0,2495.0 9330.0,2501.0 C 9288.0,2510.0 9190.0,2574.0 9163.0,2609.0 C 9157.0,2618.0 9131.0,2662.0 9105.0,2708.0 C 9075.0,2762.0 9032.0,2817.0 8979.0,2871.0 C 8910.0,2940.0 8891.0,2969.0 8836.0,3078.0 C 8801.0,3148.0 8756.0,3234.0 8736.0,3269.0 C 8701.0,3331.0 8699.0,3337.0 8694.0,3459.0 C 8687.0,3614.0 8671.0,3669.0 8621.0,3712.0 C 8583.0,3744.0 8583.0,3747.0 8577.0,3830.0 C 8573.0,3891.0 8564.0,3933.0 8544.0,3980.0 C 8518.0,4041.0 8517.0,4053.0 8517.0,4190.0 L 8518.0,4335.0 L 8469.0,4439.0 L 8420.0,4543.0 L 8410.0,4834.0 C 8404.0,4994.0 8397.0,5131.0 8395.0,5138.0 C 8392.0,5146.0 8408.0,5173.0 8429.0,5198.0 C 8478.0,5257.0 8487.0,5286.0 8465.0,5310.0 C 8450.0,5327.0 8446.0,5327.0 8372.0,5299.0 C 8258.0,5256.0 8215.0,5259.0 8129.0,5315.0 C 8082.0,5346.0 8056.0,5370.0 8049.0,5389.0 C 8043.0,5406.0 8018.0,5432.0 7990.0,5451.0 C 7960.0,5471.0 7936.0,5497.0 7930.0,5514.0 C 7898.0,5608.0 7814.0,5601.0 7733.0,5498.0 C 7717.0,5479.0 7670.0,5433.0 7628.0,5397.0 C 7558.0,5336.0 7549.0,5331.0 7530.0,5342.0 C 7519.0,5349.0 7508.0,5362.0 7505.0,5371.0 C 7502.0,5380.0 7488.0,5393.0 7474.0,5400.0 C 7451.0,5413.0 7447.0,5411.0 7422.0,5387.0 C 7400.0,5365.0 7393.0,5346.0 7385.0,5283.0 L 7375.0,5207.0 L 7285.0,5174.0 C 7208.0,5146.0 7181.0,5141.0 7104.0,5141.0 C 6973.0,5140.0 6953.0,5145.0 6947.0,5184.0 C 6944.0,5201.0 6947.0,5241.0 6953.0,5273.0 C 6963.0,5323.0 6962.0,5335.0 6946.0,5364.0 C 6932.0,5390.0 6931.0,5402.0 6939.0,5418.0 C 6957.0,5452.0 7019.0,5475.0 7109.0,5480.0 C 7186.0,5485.0 7194.0,5487.0 7202.0,5509.0 C 7210.0,5532.0 7209.0,5533.0 7163.0,5527.0 C 7125.0,5523.0 7108.0,5526.0 7081.0,5543.0 L 7047.0,5563.0 L 7029.0,5541.0 C 7013.0,5522.0 6990.0,5515.0 6893.0,5500.0 C 6828.0,5489.0 6759.0,5476.0 6740.0,5471.0 C 6721.0,5465.0 6656.0,5460.0 6595.0,5460.0 L 6485.0,5460.0 L 6436.0,5420.0 C 6410.0,5398.0 6380.0,5380.0 6370.0,5380.0 C 6360.0,5380.0 6345.0,5377.0 6337.0,5374.0 C 6319.0,5368.0 6300.0,5416.0 6300.0,5466.0 C 6300.0,5497.0 6303.0,5500.0 6330.0,5500.0 C 6352.0,5500.0 6360.0,5505.0 6360.0,5518.0 C 6361.0,5550.0 6398.0,5618.0 6419.0,5625.0 C 6431.0,5629.0 6449.0,5625.0 6462.0,5616.0 C 6502.0,5588.0 6537.0,5596.0 6563.0,5638.0 C 6577.0,5658.0 6604.0,5695.0 6624.0,5719.0 C 6645.0,5744.0 6673.0,5787.0 6687.0,5814.0 C 6754.0,5946.0 6839.0,6051.0 6928.0,6112.0 C 6942.0,6121.0 6967.0,6155.0 6984.0,6186.0 C 7021.0,6255.0 7131.0,6355.0 7242.0,6420.0 C 7282.0,6444.0 7333.0,6477.0 7355.0,6495.0 C 7377.0,6512.0 7422.0,6539.0 7454.0,6554.0 C 7512.0,6580.0 7669.0,6690.0 7705.0,6730.0 C 7722.0,6748.0 7735.0,6750.0 7864.0,6750.0 C 8012.0,6750.0 8109.0,6735.0 8270.0,6685.0 C 8311.0,6672.0 8383.0,6652.0 8430.0,6640.0 C 8523.0,6617.0 8574.0,6590.0 8675.0,6509.0 C 8732.0,6463.0 8743.0,6449.0 8756.0,6403.0 C 8774.0,6341.0 8792.0,6335.0 8832.0,6378.0 C 8861.0,6407.0 8874.0,6437.0 8895.0,6516.0 C 8913.0,6584.0 8901.0,6635.0 8851.0,6708.0 C 8793.0,6794.0 8774.0,6837.0 8731.0,6977.0 C 8710.0,7047.0 8678.0,7131.0 8660.0,7162.0 C 8643.0,7194.0 8618.0,7247.0 8605.0,7280.0 C 8592.0,7314.0 8564.0,7362.0 8543.0,7388.0 C 8470.0,7476.0 8470.0,7476.0 8477.0,7594.0 C 8483.0,7697.0 8482.0,7701.0 8459.0,7727.0 C 8431.0,7757.0 8278.0,7860.0 8233.0,7879.0 C 8207.0,7889.0 8198.0,7904.0 8172.0,7973.0 C 8155.0,8018.0 8138.0,8075.0 8134.0,8100.0 C 8130.0,8127.0 8116.0,8160.0 8099.0,8182.0 C 8083.0,8202.0 8059.0,8247.0 8046.0,8282.0 C 8033.0,8316.0 8006.0,8380.0 7986.0,8424.0 C 7951.0,8501.0 7950.0,8505.0 7950.0,8632.0 C 7950.0,8722.0 7955.0,8779.0 7966.0,8817.0 C 7981.0,8869.0 7981.0,8876.0 7966.0,8907.0 C 7949.0,8943.0 7946.0,8983.0 7960.0,9015.0 C 7966.0,9029.0 7961.0,9048.0 7943.0,9079.0 C 7914.0,9128.0 7911.0,9168.0 7928.0,9259.0 C 7934.0,9294.0 7937.0,9326.0 7935.0,9330.0 C 7932.0,9334.0 7880.0,9346.0 7818.0,9356.0 C 7710.0,9374.0 7703.0,9377.0 7660.0,9416.0 C 7622.0,9451.0 7511.0,9504.0 6959.0,9749.0 L 6302.0,10040.0 L 5389.0,10040.0 C 4491.0,10040.0 4474.0,10040.0 4445.0,10020.0" fill="pink"/>
	<path d="M 8235.0,9554.0 C 8111.0,9511.0 8112.0,9512.0 8105.0,9467.0 C 8101.0,9441.0 8079.0,9397.0 8047.0,9351.0 C 7999.0,9281.0 7971.0,9203.0 7970.0,9143.0 C 7970.0,9124.0 7976.0,9120.0 8000.0,9120.0 C 8017.0,9120.0 8047.0,9129.0 8067.0,9140.0 C 8088.0,9151.0 8118.0,9160.0 8133.0,9160.0 C 8153.0,9160.0 8170.0,9170.0 8188.0,9191.0 C 8215.0,9222.0 8422.0,9365.0 8473.0,9388.0 C 8488.0,9394.0 8521.0,9400.0 8546.0,9400.0 C 8571.0,9400.0 8616.0,9407.0 8646.0,9416.0 C 8693.0,9429.0 8702.0,9437.0 8715.0,9467.0 C 8723.0,9486.0 8730.0,9504.0 8730.0,9506.0 C 8730.0,9508.0 8694.0,9510.0 8651.0,9510.0 C 8606.0,9510.0 8523.0,9520.0 8458.0,9534.0 C 8299.0,9568.0 8280.0,9569.0 8235.0,9554.0" fill="pink"/>
	<path d="M 8543.0,9286.0 C 8480.0,9270.0 8460.0,9255.0 8460.0,9223.0 C 8460.0,9192.0 8488.0,9150.0 8509.0,9149.0 C 8518.0,9149.0 8543.0,9121.0 8566.0,9087.0 C 8599.0,9037.0 8613.0,9023.0 8643.0,9016.0 C 8685.0,9005.0 8685.0,9006.0 8666.0,8902.0 L 8653.0,8830.0 L 8692.0,8824.0 C 8729.0,8818.0 8730.0,8816.0 8714.0,8799.0 C 8673.0,8753.0 8734.0,8732.0 8816.0,8764.0 C 8875.0,8787.0 8880.0,8798.0 8851.0,8845.0 C 8834.0,8874.0 8832.0,8903.0 8846.0,8968.0 C 8852.0,8998.0 8900.0,9000.0 8900.0,8969.0 C 8900.0,8954.0 8911.0,8944.0 8940.0,8933.0 C 8962.0,8924.0 8980.0,8913.0 8980.0,8908.0 C 8980.0,8904.0 8987.0,8900.0 8996.0,8900.0 C 9008.0,8900.0 9004.0,8891.0 8981.0,8864.0 C 8963.0,8844.0 8947.0,8815.0 8943.0,8799.0 C 8937.0,8767.0 8915.0,8750.0 8881.0,8750.0 C 8847.0,8750.0 8855.0,8713.0 8893.0,8693.0 L 8925.0,8675.0 L 8883.0,8672.0 C 8833.0,8668.0 8830.0,8657.0 8867.0,8618.0 L 8894.0,8590.0 L 8864.0,8590.0 C 8848.0,8591.0 8824.0,8600.0 8811.0,8610.0 C 8790.0,8628.0 8788.0,8636.0 8794.0,8680.0 C 8798.0,8708.0 8798.0,8730.0 8795.0,8730.0 C 8776.0,8730.0 8750.0,8707.0 8750.0,8690.0 C 8750.0,8661.0 8737.0,8659.0 8671.0,8674.0 C 8614.0,8687.0 8611.0,8687.0 8620.0,8670.0 C 8625.0,8661.0 8645.0,8639.0 8665.0,8621.0 C 8692.0,8598.0 8710.0,8590.0 8739.0,8590.0 C 8764.0,8590.0 8783.0,8583.0 8795.0,8570.0 C 8811.0,8552.0 8812.0,8545.0 8801.0,8510.0 C 8785.0,8455.0 8794.0,8430.0 8830.0,8430.0 C 8867.0,8430.0 8874.0,8418.0 8860.0,8374.0 C 8846.0,8333.0 8814.0,8330.0 8817.0,8370.0 C 8818.0,8388.0 8808.0,8402.0 8784.0,8420.0 C 8759.0,8438.0 8750.0,8453.0 8750.0,8474.0 C 8750.0,8513.0 8705.0,8560.0 8669.0,8560.0 C 8632.0,8560.0 8610.0,8569.0 8610.0,8585.0 C 8610.0,8596.0 8599.0,8595.0 8558.0,8581.0 C 8530.0,8571.0 8505.0,8559.0 8503.0,8554.0 C 8499.0,8540.0 8587.0,8490.0 8616.0,8490.0 C 8638.0,8490.0 8640.0,8486.0 8640.0,8444.0 C 8640.0,8398.0 8640.0,8398.0 8611.0,8403.0 C 8595.0,8406.0 8566.0,8420.0 8545.0,8434.0 C 8486.0,8474.0 8446.0,8477.0 8384.0,8446.0 C 8331.0,8421.0 8330.0,8419.0 8330.0,8378.0 L 8330.0,8335.0 L 8448.0,8333.0 C 8570.0,8332.0 8620.0,8321.0 8620.0,8295.0 C 8620.0,8275.0 8605.0,8276.0 8528.0,8300.0 C 8467.0,8319.0 8378.0,8326.0 8346.0,8314.0 C 8335.0,8310.0 8330.0,8295.0 8330.0,8261.0 C 8330.0,8217.0 8328.0,8214.0 8285.0,8187.0 L 8240.0,8158.0 L 8240.0,8076.0 C 8240.0,7997.0 8241.0,7994.0 8268.0,7978.0 C 8283.0,7970.0 8325.0,7957.0 8363.0,7950.0 C 8417.0,7940.0 8435.0,7932.0 8455.0,7908.0 C 8469.0,7892.0 8480.0,7872.0 8480.0,7865.0 C 8480.0,7857.0 8493.0,7836.0 8509.0,7818.0 C 8532.0,7791.0 8538.0,7773.0 8543.0,7716.0 C 8546.0,7669.0 8554.0,7639.0 8569.0,7619.0 C 8581.0,7604.0 8590.0,7581.0 8590.0,7568.0 C 8590.0,7554.0 8612.0,7520.0 8643.0,7485.0 C 8693.0,7429.0 8698.0,7418.0 8723.0,7318.0 C 8738.0,7259.0 8750.0,7202.0 8750.0,7191.0 C 8750.0,7180.0 8761.0,7158.0 8775.0,7142.0 C 8789.0,7125.0 8804.0,7090.0 8809.0,7063.0 C 8819.0,7015.0 8866.0,6892.0 8890.0,6853.0 C 8910.0,6821.0 8954.0,6800.0 8999.0,6800.0 C 9021.0,6800.0 9060.0,6795.0 9085.0,6788.0 C 9126.0,6777.0 9132.0,6778.0 9162.0,6800.0 C 9281.0,6886.0 9423.0,7018.0 9554.0,7161.0 C 9673.0,7292.0 9721.0,7354.0 9783.0,7455.0 C 9854.0,7573.0 9864.0,7595.0 9911.0,7758.0 C 9961.0,7926.0 9962.0,7935.0 9947.0,7964.0 C 9938.0,7981.0 9926.0,8041.0 9920.0,8098.0 C 9908.0,8200.0 9908.0,8200.0 9880.0,8200.0 C 9861.0,8200.0 9851.0,8194.0 9847.0,8180.0 L 9842.0,8160.0 L 9807.0,8180.0 C 9780.0,8196.0 9746.0,8245.0 9652.0,8403.0 C 9586.0,8514.0 9492.0,8667.0 9443.0,8744.0 C 9357.0,8879.0 9352.0,8885.0 9185.0,9032.0 C 9037.0,9162.0 9003.0,9188.0 8920.0,9227.0 C 8854.0,9258.0 8799.0,9276.0 8740.0,9286.0 C 8639.0,9302.0 8612.0,9302.0 8543.0,9286.0" fill="pink"/>
	<path d="M 8015.0,8708.0 C 8012.0,8695.0 8010.0,8655.0 8012.0,8620.0 C 8015.0,8556.0 8016.0,8555.0 8058.0,8527.0 C 8098.0,8500.0 8100.0,8497.0 8086.0,8481.0 C 8077.0,8471.0 8070.0,8457.0 8070.0,8448.0 C 8070.0,8427.0 8112.0,8390.0 8137.0,8390.0 C 8148.0,8390.0 8165.0,8381.0 8175.0,8370.0 C 8193.0,8351.0 8192.0,8350.0 8169.0,8350.0 C 8156.0,8351.0 8128.0,8357.0 8108.0,8364.0 C 8063.0,8380.0 8061.0,8375.0 8096.0,8329.0 C 8136.0,8275.0 8170.0,8203.0 8170.0,8171.0 C 8170.0,8123.0 8189.0,8124.0 8238.0,8173.0 C 8281.0,8216.0 8284.0,8223.0 8285.0,8272.0 C 8285.0,8323.0 8284.0,8325.0 8250.0,8336.0 L 8216.0,8347.0 L 8247.0,8363.0 C 8267.0,8374.0 8281.0,8390.0 8285.0,8409.0 C 8291.0,8438.0 8311.0,8450.0 8357.0,8450.0 C 8387.0,8450.0 8413.0,8500.0 8401.0,8532.0 C 8393.0,8552.0 8381.0,8558.0 8314.0,8569.0 C 8139.0,8598.0 8144.0,8595.0 8105.0,8661.0 C 8085.0,8693.0 8065.0,8720.0 8060.0,8720.0 C 8055.0,8720.0 8045.0,8723.0 8036.0,8726.0 C 8026.0,8730.0 8019.0,8724.0 8015.0,8708.0" fill="pink"/>
	<path d="M 9450.0,6063.0 C 9428.0,6043.0 9415.0,6017.0 9404.0,5975.0 C 9395.0,5943.0 9380.0,5899.0 9369.0,5878.0 C 9343.0,5827.0 9344.0,5817.0 9378.0,5823.0 C 9520.0,5853.0 9519.0,5852.0 9560.0,5836.0 C 9582.0,5827.0 9627.0,5820.0 9659.0,5820.0 C 9716.0,5820.0 9719.0,5818.0 9766.0,5772.0 C 9793.0,5746.0 9822.0,5714.0 9830.0,5702.0 C 9846.0,5679.0 10001.0,5618.0 10073.0,5607.0 L 10110.0,5601.0 L 10110.0,5651.0 L 10110.0,5701.0 L 9964.0,5843.0 C 9829.0,5974.0 9814.0,5986.0 9766.0,5996.0 C 9678.0,6014.0 9641.0,6031.0 9619.0,6061.0 C 9600.0,6087.0 9593.0,6090.0 9539.0,6090.0 C 9489.0,6090.0 9476.0,6086.0 9450.0,6063.0" fill="pink"/>
</svg>

<?xml version="1.0" standalone="no"?>
<!DOCTYPE svg PUBLIC "-//W3C//DTD SVG 20010904//EN"
 "http://www.w3.org/TR/2001/REC-SVG-20010904/DTD/svg10.dtd">
<svg version="1.0" xmlns="http://www.w3.org/2000/svg"
 width="1024.000000pt" height="1024.000000pt" viewBox="0 0 1024.000000 1024.000000"
 preserveAspectRatio="xMidYMid meet">
<metadata>
Created by potrace 1.10, written by Peter Selinger 2001-2011
</metadata>
<g transform="translate(0.000000,1024.000000) scale(0.100000,-0.100000)"
fill="#000000" stroke="none">
<path d="M4445 10020 c-16 -11 -58 -29 -92 -40 -107 -33 -226 -105 -323 -195
-41 -38 -66 -49 -264 -114 -324 -108 -370 -129 -443 -204 -47 -48 -68 -80 -93
-142 -18 -44 -66 -136 -106 -205 -61 -105 -76 -139 -93 -215 -10 -50 -37 -156
-59 -236 -33 -120 -50 -163 -102 -254 -34 -61 -81 -157 -104 -215 -28 -71 -59
-127 -93 -170 -40 -51 -53 -78 -63 -125 -7 -39 -33 -99 -72 -169 l-61 -108
-29 -182 c-25 -153 -34 -188 -58 -226 -15 -25 -42 -74 -59 -110 -17 -36 -60
-105 -96 -155 -36 -49 -70 -106 -76 -125 -6 -19 -26 -62 -44 -95 -18 -33 -45
-91 -61 -130 -16 -38 -49 -95 -75 -126 -39 -47 -47 -65 -53 -113 -4 -39 -29
-107 -77 -214 -106 -233 -116 -250 -192 -332 -38 -41 -121 -143 -183 -226 -62
-84 -133 -168 -157 -188 -36 -29 -48 -49 -71 -114 -33 -95 -85 -172 -263 -388
-74 -91 -168 -220 -215 -296 -79 -129 -91 -143 -256 -299 -95 -90 -199 -184
-231 -209 -146 -115 -179 -150 -232 -247 -28 -52 -49 -96 -47 -98 8 -7 2333
-319 3583 -481 754 -98 1374 -181 1379 -185 5 -4 11 -41 14 -81 2 -40 9 -81
14 -91 5 -11 61 -88 124 -172 l114 -154 0 -65 c0 -87 34 -163 104 -236 53 -55
53 -56 153 -345 l101 -290 8 -225 9 -225 51 -85 c43 -71 53 -98 64 -165 9 -64
23 -101 66 -182 53 -99 58 -105 167 -191 62 -49 131 -99 153 -110 52 -27 90
-90 110 -187 8 -38 18 -73 22 -76 5 -5 3984 65 4000 70 2 1 -12 30 -32 65 -23
41 -36 77 -36 101 0 24 -10 51 -30 80 -58 84 -70 126 -70 246 0 105 -1 109
-25 125 -24 16 -27 15 -80 -25 -31 -23 -63 -41 -72 -39 -11 2 -21 22 -29 58
-19 79 -18 83 11 76 14 -3 36 -9 49 -12 18 -5 28 1 45 25 28 39 20 75 -20 91
-23 10 -29 19 -29 41 0 43 35 39 61 -6 23 -39 26 -40 53 -20 17 13 18 17 3 52
-11 28 -13 51 -6 88 4 28 8 73 9 100 0 28 9 70 20 93 23 51 18 90 -14 96 -11
3 -43 7 -69 10 -28 3 -61 16 -80 30 -18 13 -83 49 -145 80 l-113 56 -50 108
c-28 59 -67 145 -86 192 l-35 85 12 135 c7 74 11 159 9 189 l-4 54 -55 19
c-30 10 -75 23 -100 29 -42 9 -140 73 -167 108 -6 9 -32 53 -58 99 -30 54 -73
109 -126 163 -69 69 -88 98 -143 207 -35 70 -80 156 -100 191 -35 62 -37 68
-42 190 -7 155 -23 210 -73 253 -38 32 -38 35 -44 118 -4 61 -13 103 -33 150
-26 61 -27 73 -27 210 l1 145 -49 104 -49 104 -10 291 c-6 160 -13 297 -15
304 -3 8 13 35 34 60 49 59 58 88 36 112 -15 17 -19 17 -93 -11 -114 -43 -157
-40 -243 16 -47 31 -73 55 -80 74 -6 17 -31 43 -59 62 -30 20 -54 46 -60 63
-32 94 -116 87 -197 -16 -16 -19 -63 -65 -105 -101 -70 -61 -79 -66 -98 -55
-11 7 -22 20 -25 29 -3 9 -17 22 -31 29 -23 13 -27 11 -52 -13 -22 -22 -29
-41 -37 -104 l-10 -76 -90 -33 c-77 -28 -104 -33 -181 -33 -131 -1 -151 4
-157 43 -3 17 0 57 6 89 10 50 9 62 -7 91 -14 26 -15 38 -7 54 18 34 80 57
170 62 77 5 85 7 93 29 8 23 7 24 -39 18 -38 -4 -55 -1 -82 16 l-34 20 -18
-22 c-16 -19 -39 -26 -136 -41 -65 -11 -134 -24 -153 -29 -19 -6 -84 -11 -145
-11 l-110 0 -49 -40 c-26 -22 -56 -40 -66 -40 -10 0 -25 -3 -33 -6 -18 -6 -37
42 -37 92 0 31 3 34 30 34 22 0 30 5 30 18 1 32 38 100 59 107 12 4 30 0 43
-9 40 -28 75 -20 101 22 14 20 41 57 61 81 21 25 49 68 63 95 67 132 152 237
241 298 14 9 39 43 56 74 37 69 147 169 258 234 40 24 91 57 113 75 22 17 67
44 99 59 58 26 215 136 251 176 17 18 30 20 159 20 148 0 245 -15 406 -65 41
-13 113 -33 160 -45 93 -23 144 -50 245 -131 57 -46 68 -60 81 -106 18 -62 36
-68 76 -25 29 29 42 59 63 138 18 68 6 119 -44 192 -58 86 -77 129 -120 269
-21 70 -53 154 -71 185 -17 32 -42 85 -55 118 -13 34 -41 82 -62 108 -73 88
-73 88 -66 206 6 103 5 107 -18 133 -28 30 -181 133 -226 152 -26 10 -35 25
-61 94 -17 45 -34 102 -38 127 -4 27 -18 60 -35 82 -16 20 -40 65 -53 100 -13
34 -40 98 -60 142 -35 77 -36 81 -36 208 0 90 5 147 16 185 15 52 15 59 0 90
-17 36 -20 76 -6 108 6 14 1 33 -17 64 -29 49 -32 89 -15 180 6 35 9 67 7 71
-3 4 -55 16 -117 26 -108 18 -115 21 -158 60 -38 35 -149 88 -701 333 l-657
291 -913 0 c-898 0 -915 0 -944 -20z"/>
<path d="M8235 9554 c-124 -43 -123 -42 -130 -87 -4 -26 -26 -70 -58 -116 -48
-70 -76 -148 -77 -208 0 -19 6 -23 30 -23 17 0 47 9 67 20 21 11 51 20 66 20
20 0 37 10 55 31 27 31 234 174 285 197 15 6 48 12 73 12 25 0 70 7 100 16 47
13 56 21 69 51 8 19 15 37 15 39 0 2 -36 4 -79 4 -45 0 -128 10 -193 24 -159
34 -178 35 -223 20z"/>
<path d="M8543 9286 c-63 -16 -83 -31 -83 -63 0 -31 28 -73 49 -74 9 0 34 -28
57 -62 33 -50 47 -64 77 -71 42 -11 42 -10 23 -114 l-13 -72 39 -6 c37 -6 38
-8 22 -25 -41 -46 20 -67 102 -35 59 23 64 34 35 81 -17 29 -19 58 -5 123 6
30 54 32 54 1 0 -15 11 -25 40 -36 22 -9 40 -20 40 -25 0 -4 7 -8 16 -8 12 0
8 -9 -15 -36 -18 -20 -34 -49 -38 -65 -6 -32 -28 -49 -62 -49 -34 0 -26 -37
12 -57 l32 -18 -42 -3 c-50 -4 -53 -15 -16 -54 l27 -28 -30 0 c-16 1 -40 10
-53 20 -21 18 -23 26 -17 70 4 28 4 50 1 50 -19 0 -45 -23 -45 -40 0 -29 -13
-31 -79 -16 -57 13 -60 13 -51 -4 5 -9 25 -31 45 -49 27 -23 45 -31 74 -31 25
0 44 -7 56 -20 16 -18 17 -25 6 -60 -16 -55 -7 -80 29 -80 37 0 44 -12 30 -56
-14 -41 -46 -44 -43 -4 1 18 -9 32 -33 50 -25 18 -34 33 -34 54 0 39 -45 86
-81 86 -37 0 -59 9 -59 25 0 11 -11 10 -52 -4 -28 -10 -53 -22 -55 -27 -4 -14
84 -64 113 -64 22 0 24 -4 24 -46 0 -46 0 -46 -29 -41 -16 3 -45 17 -66 31
-59 40 -99 43 -161 12 -53 -25 -54 -27 -54 -68 l0 -43 118 -2 c122 -1 172 -12
172 -38 0 -20 -15 -19 -92 5 -61 19 -150 26 -182 14 -11 -4 -16 -19 -16 -53 0
-44 -2 -47 -45 -74 l-45 -29 0 -82 c0 -79 1 -82 28 -98 15 -8 57 -21 95 -28
54 -10 72 -18 92 -42 14 -16 25 -36 25 -43 0 -8 13 -29 29 -47 23 -27 29 -45
34 -102 3 -47 11 -77 26 -97 12 -15 21 -38 21 -51 0 -14 22 -48 53 -83 50 -56
55 -67 80 -167 15 -59 27 -116 27 -127 0 -11 11 -33 25 -49 14 -17 29 -52 34
-79 10 -48 57 -171 81 -210 20 -32 64 -53 109 -53 22 0 61 -5 86 -12 41 -11
47 -10 77 12 119 86 261 218 392 361 119 131 167 193 229 294 71 118 81 140
128 303 50 168 51 177 36 206 -9 17 -21 77 -27 134 -12 102 -12 102 -40 102
-19 0 -29 -6 -33 -20 l-5 -20 -35 20 c-27 16 -61 65 -155 223 -66 111 -160
264 -209 341 -86 135 -91 141 -258 288 -148 130 -182 156 -265 195 -66 31
-121 49 -180 59 -101 16 -128 16 -197 0z"/>
<path d="M8015 8708 c-3 -13 -5 -53 -3 -88 3 -64 4 -65 46 -93 40 -27 42 -30
28 -46 -9 -10 -16 -24 -16 -33 0 -21 42 -58 67 -58 11 0 28 -9 38 -20 18 -19
17 -20 -6 -20 -13 1 -41 7 -61 14 -45 16 -47 11 -12 -35 40 -54 74 -126 74
-158 0 -48 19 -47 68 2 43 43 46 50 47 99 0 51 -1 53 -35 64 l-34 11 31 16
c20 11 34 27 38 46 6 29 26 41 72 41 30 0 56 50 44 82 -8 20 -20 26 -87 37
-175 29 -170 26 -209 92 -20 32 -40 59 -45 59 -5 0 -15 3 -24 6 -10 4 -17 -2
-21 -18z"/>
<path d="M9450 6063 c-22 -20 -35 -46 -46 -88 -9 -32 -24 -76 -35 -97 -26 -51
-25 -61 9 -55 142 30 141 29 182 13 22 -9 67 -16 99 -16 57 0 60 -2 107 -48
27 -26 56 -58 64 -70 16 -23 171 -84 243 -95 l37 -6 0 50 0 50 -146 142 c-135
131 -150 143 -198 153 -88 18 -125 35 -147 65 -19 26 -26 29 -80 29 -50 0 -63
-4 -89 -27z"/>
</g>
</svg>
